X:223
T:Earl of Breadalbane
R:Reel
C:Niel Gow
B:The Athole Collection
M:C|
L:1/8
K:E Minor
g|:E/E/E EF B3^c|dBAd FDAF|E/E/E EF B3g|fdB^d e3f:|
gfef gfeg|feda fadf|gfef gfeg|fdB^d e3f|gfef gfeg|feda fadf|
gbeg bgeg|fdB^d e3f||

